svg/icon-wnyc-accessible.svg

<svg viewBox="0 0 24 24" xmlns="http://www.w3.org/2000/svg"><path d="M20.0888 10.975C19.8251 10.7044 19.4566 10.5616 19.0801 10.5822L14.5227 10.8359 17.0307 7.97945C17.388 7.57256 17.4901 7.03016 17.352 6.54548 17.2791 6.21336 17.0779 5.91117 16.7689 5.7181 16.7595 5.71133 10.7739 2.23419 10.7739 2.23419 10.2852 1.95027 9.66928 2.01282 9.24749 2.38903L6.32364 4.99716C5.78494 5.47765 5.73777 6.30387 6.21829 6.8426 6.69886 7.38126 7.52511 7.42858 8.06377 6.94791L10.2805 4.97059 12.113 6.03475 8.8783 9.71873C7.53699 9.93748 6.33014 10.5556 5.38275 11.4467L7.07193 13.1359C7.83553 12.4416 8.84942 12.0178 9.96041 12.0178 12.3301 12.0178 14.2581 13.9458 14.2581 16.3155 14.2581 17.4265 13.8343 18.4403 13.14 19.2039L14.8291 20.8931C15.9543 19.6969 16.6449 18.0874 16.6449 16.3155 16.6449 15.2599 16.3998 14.2616 15.964 13.3738L17.7281 13.2756 17.299 18.5394C17.2403 19.2589 17.7761 19.8896 18.4956 19.9483 18.5316 19.9513 18.5676 19.9527 18.6032 19.9527 19.2769 19.9527 19.8489 19.435 19.9045 18.7517L20.4553 11.9935C20.4861 11.6169 20.3524 11.2455 20.0888 10.975ZM17.668 5.37585C18.8763 5.37585 19.8557 4.39632 19.8557 3.18794 19.8557 1.97963 18.8763 1 17.668 1 16.4596 1 15.4801 1.97963 15.4801 3.18794 15.4801 4.39632 16.4595 5.37585 17.668 5.37585ZM9.96055 20.6132C7.59079 20.6132 5.66283 18.6852 5.66283 16.3155 5.66283 15.4224 5.93685 14.5923 6.40493 13.9043L4.69752 12.1969C3.80786 13.3322 3.276 14.7614 3.276 16.3155 3.276 20.0073 6.26874 23 9.96055 23 11.5147 23 12.9438 22.4681 14.079 21.5785L12.3717 19.8711C11.6837 20.3391 10.8536 20.6132 9.96055 20.6132Z" fill="currentColor"/></svg>

<svg viewBox="0 0 24 24" xmlns="http://www.w3.org/2000/svg"><path d="M20.089 10.975a1.31 1.31 0 00-1.009-.393l-4.557.254 2.508-2.857c.357-.406.46-.949.321-1.434a1.301 1.301 0 00-.583-.827c-.01-.007-5.995-3.484-5.995-3.484a1.307 1.307 0 00-1.527.155L6.324 4.997a1.307 1.307 0 101.74 1.95l2.216-1.976 1.833 1.064-3.235 3.684a6.665 6.665 0 00-3.495 1.728l1.689 1.689a4.281 4.281 0 012.888-1.118 4.303 4.303 0 014.298 4.297 4.281 4.281 0 01-1.118 2.889l1.69 1.69a6.659 6.659 0 001.815-4.578 6.657 6.657 0 00-.681-2.942l1.764-.098-.429 5.263a1.307 1.307 0 102.605.213l.551-6.758a1.307 1.307 0 00-.366-1.019zM17.668 5.376a2.188 2.188 0 100-4.376 2.188 2.188 0 000 4.376zM9.96 20.613a4.303 4.303 0 01-4.297-4.297c0-.894.274-1.724.742-2.412l-1.707-1.707a6.684 6.684 0 009.381 9.382l-1.707-1.708a4.273 4.273 0 01-2.411.742z" fill="currentColor"/></svg>
